rospo-newyear-dark/symbolic/status/channel-secure-symbolic.svg

<svg height="16" width="16" xmlns="http://www.w3.org/2000/svg"><path d="m2.5 1c-.83 0-1.5.67-1.5 1.5v12c0 .83.67 1.5 1.5 1.5h12c .83 0 1.5-.67 1.5-1.5v-12c0-.83-.67-1.5-1.5-1.5zm8.5 7v-2c0-1.11-.89-2-2-2h-1c-1.11 0-2.02.89-2 2h-1c0-1.66 1.34-3 3-3h1c1.66 0 3 1.34 3 3v2c .55 0 1 .45 1 1v4c0 .55-.45 1-1 1h-7c-.55 0-1-.45-1-1v-4c0-1 1-1 1-1m3.5 1c-.83 0-1.5.67-1.5 1.5 0 .63.4 1.2 1 1.41v1.09h1v-1.09c.6-.21 1-.78 1-1.41 0-.83-.67-1.5-1.5-1.5z" fill="#d3dae3"/></svg>

<svg xmlns="http://www.w3.org/2000/svg" width="16" height="16" version="1.1">
 <path style="fill:#d3dae3" d="M 2.5,1 C 1.67,1 1,1.67 1,2.5 V 14.5 C 1,15.33 1.67,16 2.5,16 H 14.5 C 15.33,16 16,15.33 16,14.5 V 2.5 C 16,1.67 15.33,1 14.5,1 Z M 11,8 V 6 C 11,4.89 10.11,4 9,4 H 8 C 6.89,4 5.98,4.89 6,6 H 5 C 5,4.34 6.34,3 8,3 H 9 C 10.66,3 12,4.34 12,6 V 8 C 12.55,8 13,8.45 13,9 V 13 C 13,13.55 12.55,14 12,14 H 5 C 4.45,14 4,13.55 4,13 V 9 C 4,8 5,8 5,8 M 8.5,9 C 7.67,9 7,9.67 7,10.5 7,11.13 7.4,11.7 8,11.91 V 13 H 9 V 11.91 C 9.6,11.7 10,11.13 10,10.5 10,9.67 9.33,9 8.5,9 Z"/>
</svg>
